bin/data/sunflower.cube
TITLE "sunflower"
LUT_3D_SIZE 5
DOMAIN_MIN 0.000000 0.000000 0.000000
DOMAIN_MAX 0.903226 0.903226 0.903226
0.1686 0.1098 0.0902
0.1686 0.1098 0.0902
0.1686 0.1098 0.0902
0.1686 0.1098 0.0902
0.1686 0.1098 0.0902
0.1686 0.1098 0.0902
0.1686 0.1098 0.0902
0.1686 0.1098 0.0902
0.1961 0.1529 0.1176
0.2745 0.2706 0.2000
0.1686 0.1098 0.0902
0.1686 0.1098 0.0902
0.2431 0.2196 0.1647
0.3176 0.3373 0.2471
0.4000 0.4471 0.3137
0.2118 0.1765 0.1333
0.2902 0.2941 0.2157
0.3647 0.4118 0.2941
0.4588 0.4784 0.3020
0.5529 0.5255 0.2863
0.3333 0.3608 0.2627
0.4196 0.4588 0.3098
0.5137 0.5059 0.2941
0.6078 0.5569 0.2745
0.7020 0.6039 0.2549
0.1686 0.1098 0.0902
0.1686 0.1098 0.0902
0.1686 0.1098 0.0902
0.1686 0.1098 0.0902
0.1961 0.1490 0.1176
0.1686 0.1098 0.0902
0.1686 0.1098 0.0902
0.1686 0.1098 0.0902
0.2431 0.2235 0.1686
0.3216 0.3412 0.2471
0.1686 0.1098 0.0902
0.2118 0.1765 0.1333
0.2902 0.2902 0.2157
0.3647 0.4118 0.2941
0.4549 0.4784 0.3020
0.2588 0.2471 0.1843
0.3373 0.3647 0.2627
0.4196 0.4588 0.3098
0.5137 0.5059 0.2902
0.6078 0.5569 0.2745
0.3804 0.4314 0.3098
0.4745 0.4863 0.2980
0.5686 0.5373 0.2824
0.6667 0.5843 0.2627
0.7608 0.6314 0.2431
0.1686 0.1098 0.0902
0.1686 0.1098 0.0902
0.1686 0.1098 0.0902
0.1686 0.1098 0.0902
0.2431 0.2196 0.1647
0.1686 0.1098 0.0902
0.1686 0.1098 0.0902
0.2118 0.1765 0.1333
0.2902 0.2941 0.2157
0.3647 0.4118 0.2941
0.1804 0.1255 0.1020
0.2588 0.2431 0.1843
0.3333 0.3608 0.2627
0.4196 0.4588 0.3098
0.5137 0.5059 0.2941
0.3059 0.3176 0.2314
0.3843 0.4353 0.3137
0.4745 0.4863 0.2980
0.5725 0.5373 0.2784
0.6667 0.5843 0.2627
0.4353 0.4667 0.3098
0.5333 0.5176 0.2902
0.6275 0.5647 0.2706
0.7216 0.6118 0.2510
0.8196 0.6627 0.2314
0.1686 0.1098 0.0902
0.1686 0.1098 0.0902
0.1686 0.1098 0.0902
0.2118 0.1765 0.1333
0.2902 0.2902 0.2157
0.1686 0.1098 0.0902
0.1804 0.1294 0.1020
0.2588 0.2471 0.1843
0.3373 0.3647 0.2627
0.4196 0.4588 0.3098
0.2275 0.1961 0.1490
0.3059 0.3176 0.2314
0.3804 0.4314 0.3098
0.4745 0.4863 0.2980
0.5686 0.5373 0.2824
0.3529 0.3882 0.2784
0.4392 0.4706 0.3059
0.5333 0.5176 0.2863
0.6314 0.5647 0.2706
0.7255 0.6118 0.2510
0.4941 0.4980 0.2980
0.5882 0.5451 0.2784
0.6863 0.5922 0.2588
0.7804 0.6431 0.2392
0.8745 0.6902 0.2196
0.1686 0.1098 0.0902
0.1686 0.1098 0.0902
0.1804 0.1255 0.1020
0.2588 0.2431 0.1843
0.3333 0.3608 0.2627
0.1686 0.1098 0.0902
0.2275 0.2000 0.1529
0.3059 0.3176 0.2314
0.3843 0.4353 0.3137
0.4745 0.4863 0.2980
0.2706 0.2667 0.1961
0.3490 0.3843 0.2784
0.4353 0.4667 0.3098
0.5333 0.5176 0.2902
0.6275 0.5647 0.2706
0.4000 0.4471 0.3137
0.4941 0.4980 0.2941
0.5882 0.5451 0.2784
0.6863 0.5961 0.2588
0.7804 0.6431 0.2392
0.5490 0.5255 0.2863
0.6471 0.5725 0.2667
0.7412 0.6235 0.2471
0.8392 0.6706 0.2275
0.9294 0.7176 0.2078
